Papirus/64x64/mimetypes/application-vnd.oasis.opendocument.graphics.svg

<svg xmlns="http://www.w3.org/2000/svg" width="64" height="64" version="1.1">
 <path style="opacity:0.2" d="M 12.75,5 C 11.2265,5 10,6.2488 10,7.8 v 50.4 c 0,1.55008 1.2265,2.8 2.75,2.8 h 38.5 C 52.7724,61 54,59.75008 54,58.2 V 23 L 40,19 36,5 Z"/>
 <path style="fill:#f3ae16" d="M 12.75,4 C 11.2265,4 10,5.2488 10,6.8 v 50.4 c 0,1.55008 1.2265,2.8 2.75,2.8 h 38.5 C 52.7724,60 54,58.75008 54,57.2 V 22 L 40,18 36,4 Z"/>
 <path style="opacity:0.2" d="M 54,23 36,5 V 20.1875 C 36,21.74675 37.2555,23 38.8125,23 Z"/>
 <path style="fill:#f8ce71" d="M 54,22 36,4 V 19.187 C 36,20.747 37.256,22 38.813,22 Z"/>
 <path style="opacity:0.2;fill:#ffffff" d="M 12.75 4 C 11.2265 4 10 5.2495812 10 6.8007812 L 10 7.8007812 C 10 6.2495813 11.2265 5 12.75 5 L 36 5 L 36 4 L 12.75 4 z"/>
 <path style="opacity:0.2" d="M 24,29 C 19.58,29 16,32.58 16,37 16,41.42 19.58,45 24,45 24.11,44.99 24.22,44.99 24.33,44.98 L 20.18,51.44 C 19.72,52.1 20.2,53.01 21,53.01 H 39 C 39.81,53.01 40.28,52.11 39.82,51.44 L 36.97,47.01 H 46 C 47.11,47.01 48,46.12 48,45.01 V 35.01 C 48,33.9 47.11,33.01 46,33.01 H 36 C 34.89,33.01 34,33.9 34,35.01 V 42.38 L 31.76,38.89 C 31.92,38.27 32,37.64 32,37.01 32,32.59 28.42,29.01 24,29.01 Z M 36,35 H 46 V 45 H 36 Z"/>
 <path style="fill:#fafafa" d="M 36,32 C 34.89,32 34,32.89 34,34 V 44 C 34,45.11 34.89,46 36,46 H 46 C 47.11,46 48,45.11 48,44 V 34 C 48,32.89 47.11,32 46,32 Z M 36,34 H 46 V 44 H 36 Z"/>
 <circle style="fill:#fafafa" cx="24" cy="36" r="8"/>
 <path style="fill:#fde9b6" d="M 30,36 C 29.67,36 29.36,36.16 29.18,36.43 L 20.18,50.43 C 19.72,51.09 20.2,52 21,52 H 39 C 39.81,52 40.28,51.1 39.82,50.43 L 30.82,36.43 C 30.64,36.16 30.33,36 30,36 Z"/>
</svg>

<?xml version="1.0" encoding="UTF-8" standalone="no"?>
<svg
   id="_图层_1"
   data-name="图层_1"
   version="1.1"
   viewBox="0 0 128 128"
   width="64"
   height="64"
   sodipodi:docname="application-vnd.oasis.opendocument.graphics.svg"
   xml:space="preserve"
   inkscape:version="1.4 (e7c3feb100, 2024-10-09)"
   xmlns:inkscape="http://www.inkscape.org/namespaces/inkscape"
   xmlns:sodipodi="http://sodipodi.sourceforge.net/DTD/sodipodi-0.dtd"
   xmlns="http://www.w3.org/2000/svg"
   xmlns:svg="http://www.w3.org/2000/svg"><sodipodi:namedview
     id="namedview3"
     pagecolor="#505050"
     bordercolor="#eeeeee"
     borderopacity="1"
     inkscape:showpageshadow="0"
     inkscape:pageopacity="0"
     inkscape:pagecheckerboard="0"
     inkscape:deskcolor="#505050"
     inkscape:zoom="10.6875"
     inkscape:cx="32"
     inkscape:cy="33.684211"
     inkscape:window-width="1920"
     inkscape:window-height="939"
     inkscape:window-x="0"
     inkscape:window-y="34"
     inkscape:window-maximized="1"
     inkscape:current-layer="_图层_1" /><!-- Generator: Adobe Illustrator 29.0.1, SVG Export Plug-In . SVG Version: 2.1.0 Build 192)  --><defs
     id="defs1"><style
       id="style1">
      .st0 {
        fill: #0071e9;
      }

      .st1 {
        fill: #fff;
      }

      .st2 {
        fill: #5aaaff;
        isolation: isolate;
        opacity: .5;
      }
    </style></defs><path
     class="st0"
     d="M18.2,0c-5.6,0-10.2,4.6-10.2,10.2v107.6c0,5.6,4.6,10.2,10.2,10.2h91.6c5.6,0,10.2-4.6,10.2-10.2V40.6L82.2,0H18.2Z"
     id="path1"
     style="fill:#f3ae16;fill-opacity:1" /><path
     class="st2"
     d="m 82.761404,2.619883 v 29.2 c 0,3.2 2.145542,11.6 11.89801,11.6 h 24.966316 z"
     id="path2"
     style="fill:#c28b12;fill-opacity:1;stroke-width:0.987546" /><path
     class="st2"
     d="M 82.116964,0.02339171 V 29.223392 c 0,3.2 2.2,11.6 12.2,11.6 h 25.599996 z"
     id="path2-3"
     style="opacity:1;isolation:isolate;fill:#f8ce71;fill-opacity:1" /><g
     id="g3"
     transform="matrix(2.5443913,0,0,2.2790602,-17.420521,-9.0636093)"><path
       style="opacity:0.2"
       d="m 24,29 c -4.42,0 -8,3.58 -8,8 0,4.42 3.58,8 8,8 0.11,-0.01 0.22,-0.01 0.33,-0.02 l -4.15,6.46 c -0.46,0.66 0.02,1.57 0.82,1.57 h 18 c 0.81,0 1.28,-0.9 0.82,-1.57 L 36.97,47.01 H 46 c 1.11,0 2,-0.89 2,-2 v -10 c 0,-1.11 -0.89,-2 -2,-2 H 36 c -1.11,0 -2,0.89 -2,2 v 7.37 L 31.76,38.89 C 31.92,38.27 32,37.64 32,37.01 c 0,-4.42 -3.58,-8 -8,-8 z m 12,6 H 46 V 45 H 36 Z"
       id="path6-1" /><path
       style="fill:#fafafa"
       d="m 36,32 c -1.11,0 -2,0.89 -2,2 v 10 c 0,1.11 0.89,2 2,2 h 10 c 1.11,0 2,-0.89 2,-2 V 34 c 0,-1.11 -0.89,-2 -2,-2 z m 0,2 H 46 V 44 H 36 Z"
       id="path7-8" /><circle
       style="fill:#fafafa"
       cx="24"
       cy="36"
       r="8"
       id="circle7" /><path
       style="fill:#fde9b6"
       d="m 30,36 c -0.33,0 -0.64,0.16 -0.82,0.43 l -9,14 C 19.72,51.09 20.2,52 21,52 h 18 c 0.81,0 1.28,-0.9 0.82,-1.57 l -9,-14 C 30.64,36.16 30.33,36 30,36 Z"
       id="path8-7" /></g></svg>
